X: 96
T: No_185_Old_Man's_Dance_Song_(d).krn
N: Derived from No_185_Old_Man's_Dance_Song_(d).krn
%%abc-version 2.0
%%abcx-abcm2ps-target-version 5.9.1 (29 Sep 2008)
%%abc-creator hum2abc beta
%%abcx-conversion-date 2019/03/15 08:38:45
%%humdrum-veritas 2679814782
%%humdrum-veritas-data 4251872878
%%linebreak <none>
%%barnumbers 0
L: 1/8
M: 2/4
K: Eb clef=bass
[K:clef=bass][M:2/4]G,2A,/G,3/ ]|:  
B,2(3B,A,G, | 
G,2A,2 | 
B,2(3B,A,G, | 
A,2A,2 | 
G,E, E, z | 
G,G,G,2 | 
G, zA,2 | 
G,E,E,2 | 
G,/G,3/A,2 | 
B,2(3B,A,G, | 
G,2(G,B,) | 
(A,G,)A,2 ||  
[M:3/4]A,2G,E,E,2 ||  
[M:2/4]A,2A,G, | 
A,2A,2 | 
G,E,E,2 | 
G,2A,2 :|]  



